X:18537
T:Watls  ?Walts = Waltz
M:3/4
L:1/8
S:Armitt MS
K:F major
FF/4 AA/2 cc/2|a2f2 ff/2|f2b2ee|(f2a2)AG|FF/2 AA/2 cc|a2f2ff/2|g2b2e>e|f
4||:ff/2|(e2g2)
fe|(f2a2)gf|(e2g2)fe|f2a2AG|F>F A>A c>c|a2g2ff|g2b2e2|f4|| 


